X: 8441
T: Crabs In The Skillet
R: jig
M: 6/8
K: Gminor
|:G3 d2F|G2A B2c|ded cBA|dcB AGF|
G3 d2F|G2A B2d|c=Bc f=ed|1 cAF F2D:|2 cAF F2d||
|:~g3 gf=e|~f3 f=ed|cd=e f=ed|cAG G2d|
~g3 gf=e|~f3 f=ed|cd=e f=ed|1 cAF F2d:|2 cAF F2D||
|:G3 A3|B3 c3|ded cBA|dcB AGF|
G3 A3|B3 d3|c=Bc f=ed|1 cAF F2D:|2 cAF F2D||

